flowes_shop/src/assets/image/icons/clock.svg

<svg width="31" height="31" viewBox="0 0 31 31" fill="none" xmlns="http://www.w3.org/2000/svg">
<path d="M28.8895 21.9664C27.6506 20.6935 24.1289 18.309 21.8207 18.309C21.2861 18.309 20.8193 18.4278 20.4375 18.6739C19.3088 19.3952 18.4093 19.9553 17.9765 19.9553C17.7389 19.9553 17.4844 19.7431 16.9243 19.2594L16.8309 19.1745C15.278 17.8253 14.947 17.4773 14.3445 16.8494L14.1918 16.6881C14.0815 16.5778 13.9881 16.476 13.8948 16.3827C13.3686 15.8395 12.9868 15.4492 11.6375 13.9217L11.5781 13.8538C10.9332 13.124 10.5089 12.6488 10.4834 12.3009C10.458 11.9615 10.755 11.4099 11.5102 10.3831C12.4267 9.1441 12.4606 7.61662 11.6205 5.84305C10.9501 4.44286 9.85545 3.10208 8.88804 1.92252L8.80318 1.82069C7.97156 0.802372 7.00415 0.293213 5.92643 0.293213C4.72991 0.293213 3.73705 0.938148 3.21092 1.27759C3.16849 1.30305 3.12606 1.33699 3.08363 1.36245C1.90407 2.10921 1.04699 3.13602 0.724519 4.1798C0.240818 5.74971 -0.0816498 7.78634 2.23503 12.0209C4.23772 15.6868 6.05372 18.1477 8.93896 21.1094C11.6545 23.8928 12.8595 24.7923 15.558 26.744C18.5621 28.9165 21.4473 30.1639 23.467 30.1639C25.3424 30.1639 26.8189 30.1639 28.9235 27.6266C31.1298 24.962 30.2133 23.3327 28.8895 21.9664ZM27.9136 26.7101C26.2164 28.7637 25.2405 28.7637 23.4755 28.7637C21.7528 28.7637 19.0797 27.5757 16.3303 25.5984C13.6996 23.6976 12.5285 22.8235 9.88939 20.1165C7.0975 17.2567 5.3409 14.8721 3.40609 11.3335C1.36097 7.59117 1.59009 5.95337 2.0059 4.6041C2.22654 3.88279 2.88845 3.11056 3.78796 2.55049C3.83039 2.52503 3.87282 2.49108 3.92374 2.46563C4.3735 2.1771 5.12026 1.6934 5.93492 1.6934C6.6138 1.6934 7.2163 2.03284 7.79335 2.73718L7.87821 2.83901C10.0421 5.48664 11.7309 7.82877 10.458 9.55992C9.55844 10.7734 9.08322 11.5966 9.15959 12.4452C9.22748 13.2683 9.77907 13.8878 10.6107 14.8212L10.6701 14.8891C12.0363 16.4336 12.4267 16.8409 12.9698 17.3925C13.0632 17.4858 13.1565 17.5877 13.2668 17.698L13.4196 17.8592C14.0475 18.5126 14.3955 18.869 15.9908 20.2692L16.0842 20.3541C16.763 20.9481 17.2637 21.3809 17.9935 21.3809C18.7488 21.3809 19.5804 20.9057 21.1588 19.8959C21.32 19.794 21.5491 19.7346 21.8377 19.7346C23.6791 19.7346 26.8529 21.8391 27.9646 22.9848C28.9829 24.02 29.492 24.8008 27.9136 26.7101Z" fill="white"/>
</svg>

<svg width="31" height="31" fill="none" xmlns="http://www.w3.org/2000/svg"><path d="M28.89 21.966c-1.24-1.273-4.761-3.657-7.07-3.657-.534 0-1 .119-1.383.365-1.128.721-2.028 1.281-2.46 1.281-.238 0-.493-.212-1.053-.696l-.093-.085c-1.553-1.349-1.884-1.697-2.486-2.325l-.153-.16c-.11-.111-.204-.213-.297-.306-.526-.543-.908-.934-2.258-2.461l-.059-.068c-.645-.73-1.07-1.205-1.095-1.553-.025-.34.272-.891 1.027-1.918.917-1.239.95-2.766.11-4.54-.67-1.4-1.765-2.74-2.732-3.92l-.085-.102C7.972.802 7.004.293 5.926.293c-1.196 0-2.189.645-2.715.985-.043.025-.085.059-.127.084-1.18.747-2.037 1.774-2.36 2.818-.483 1.57-.806 3.606 1.511 7.84 2.003 3.667 3.819 6.128 6.704 9.09 2.716 2.783 3.92 3.682 6.619 5.634 3.004 2.172 5.89 3.42 7.909 3.42 1.875 0 3.352 0 5.457-2.537 2.206-2.665 1.29-4.294-.034-5.66Zm-.976 4.744c-1.698 2.054-2.674 2.054-4.439 2.054-1.722 0-4.395-1.188-7.145-3.166-2.63-1.9-3.801-2.774-6.44-5.482-2.793-2.86-4.55-5.244-6.484-8.782-2.045-3.743-1.816-5.38-1.4-6.73.22-.721.882-1.493 1.782-2.054.042-.025.085-.059.136-.084.45-.289 1.196-.773 2.01-.773.68 0 1.282.34 1.86 1.044l.084.102c2.164 2.648 3.853 4.99 2.58 6.72-.9 1.214-1.375 2.038-1.298 2.886.067.823.62 1.443 1.45 2.376l.06.068c1.366 1.545 1.757 1.952 2.3 2.503.093.094.186.196.297.306l.153.161c.627.654.976 1.01 2.57 2.41l.094.085c.679.594 1.18 1.027 1.91 1.027.755 0 1.586-.475 3.165-1.485.161-.102.39-.161.679-.161 1.841 0 5.015 2.104 6.127 3.25 1.018 1.035 1.527 1.816-.051 3.725Z" fill="#fff"/></svg>
